topology/icons/services/openssh.svg

<svg viewBox="-9.312 -18.987 141.5 141.5" xmlns="http://www.w3.org/2000/svg">
 <defs>
  <style type="text/css">.st0{fill-rule:evenodd;clip-rule:evenodd;}</style>
 </defs>
 <rect x="-9.312" y="-18.987" width="141.5" height="141.5" fill="#ebebeb"/>
 <path class="st0" d="m5.47 0h111.93c3.01 0 5.47 2.46 5.47 5.47v92.58c0 3.01-2.46 5.47-5.47 5.47h-111.93c-3.01 0-5.47-2.46-5.47-5.47v-92.58c0-3.01 2.46-5.47 5.47-5.47zm26.37 38.55 17.79 18.42 2.14 2.13-2.12 2.16-17.97 19.05-5.07-5 15.85-16.15-15.65-15.56 5.03-5.05zm62.26 40.86h-39.41v-6.84h39.41v6.84zm-55.91-69.58c3.19 0 5.78 2.59 5.78 5.78s-2.59 5.78-5.78 5.78-5.78-2.59-5.78-5.78 2.59-5.78 5.78-5.78zm-19.24 0c3.19 0 5.78 2.59 5.78 5.78s-2.59 5.78-5.78 5.78-5.78-2.59-5.78-5.78 2.58-5.78 5.78-5.78zm-11.46-4.42h107.91c1.15 0 2.09 0.94 2.09 2.09v18.32h-112.09v-18.32c0-1.15 0.94-2.09 2.09-2.09z" style=""/>
</svg>

<?xml version="1.0" encoding="utf-8"?>
<svg viewBox="-9.312 -18.987 141.495 141.495" xmlns="http://www.w3.org/2000/svg">
  <defs>
    <style type="text/css">.st0{fill-rule:evenodd;clip-rule:evenodd;}</style>
  </defs>
  <rect x="-9.312" y="-18.987" width="141.495" height="141.495" style="fill: rgb(235, 235, 235);"/>
  <g>
    <path class="st0" d="M5.47,0h111.93c3.01,0,5.47,2.46,5.47,5.47v92.58c0,3.01-2.46,5.47-5.47,5.47H5.47 c-3.01,0-5.47-2.46-5.47-5.47V5.47C0,2.46,2.46,0,5.47,0L5.47,0z M31.84,38.55l17.79,18.42l2.14,2.13l-2.12,2.16L31.68,80.31 l-5.07-5l15.85-16.15L26.81,43.6L31.84,38.55L31.84,38.55z M94.1,79.41H54.69v-6.84H94.1V79.41L94.1,79.41z M38.19,9.83 c3.19,0,5.78,2.59,5.78,5.78s-2.59,5.78-5.78,5.78c-3.19,0-5.78-2.59-5.78-5.78S35,9.83,38.19,9.83L38.19,9.83z M18.95,9.83 c3.19,0,5.78,2.59,5.78,5.78s-2.59,5.78-5.78,5.78c-3.19,0-5.78-2.59-5.78-5.78S15.75,9.83,18.95,9.83L18.95,9.83z M7.49,5.41 h107.91c1.15,0,2.09,0.94,2.09,2.09v18.32H5.4V7.5C5.4,6.35,6.34,5.41,7.49,5.41L7.49,5.41z" style=""/>
  </g>
</svg>
